(Generated by PartKam Version 0.05)

G20 G90 G40

(profile 1)
G0 Z0.2
T0 M6
G17
M3
G0 X0.34 Y0.9791
G1 Z-0.01 F2
G3 X0.3439 Y0.9593 I0.0517 J0 F5.9
G3 X0.3551 Y0.9425 I0.0478 J0.0198
G3 X0.3719 Y0.9313 I0.0366 J0.0366
G3 X0.3917 Y0.9274 I0.0198 J0.0478
G3 X0.4115 Y0.9313 I0 J0.0517
G3 X0.4283 Y0.9425 I-0.0198 J0.0478
G3 X0.4395 Y0.9593 I-0.0366 J0.0366
G3 X0.4434 Y0.9791 I-0.0478 J0.0198
G3 X0.4395 Y0.9989 I-0.0517 J0
G3 X0.4283 Y1.0156 I-0.0478 J-0.0198
G3 X0.4115 Y1.0268 I-0.0366 J-0.0366
G3 X0.3917 Y1.0308 I-0.0198 J-0.0478
G3 X0.3719 Y1.0268 I0 J-0.0517
G3 X0.3551 Y1.0156 I0.0198 J-0.0478
G3 X0.3439 Y0.9989 I0.0366 J-0.0366
G3 X0.34 Y0.9791 I0.0478 J-0.0198
G0 Z0.2
G0 X0.9326 Y1.105
G1 Z-0.01 F2
G3 X0.9253 Y1.1099 I-0.0159 J-0.0159 F5.9
G3 X0.9167 Y1.1116 I-0.0086 J-0.0208
G3 X0.9081 Y1.1099 I0 J-0.0225
G3 X0.9008 Y1.105 I0.0086 J-0.0208
G3 X0.8959 Y1.0977 I0.0159 J-0.0159
G3 X0.8942 Y1.0891 I0.0208 J-0.0086
G3 X0.8959 Y1.0805 I0.0225 J0
G3 X0.9008 Y1.0732 I0.0208 J0.0086
G3 X0.9081 Y1.0683 I0.0159 J0.0159
G3 X0.9167 Y1.0666 I0.0086 J0.0208
G3 X0.9253 Y1.0683 I0 J0.0225
G3 X0.9326 Y1.0732 I-0.0086 J0.0208
G3 X0.9375 Y1.0805 I-0.0159 J0.0159
G3 X0.9392 Y1.0891 I-0.0208 J0.0086
G3 X0.9375 Y1.0977 I-0.0225 J0
G3 X0.9326 Y1.105 I-0.0208 J-0.0086
G0 Z0.2
G0 X0.9375 Y0.8805
G1 Z-0.01 F2
G3 X0.9392 Y0.8891 I-0.0208 J0.0086 F5.9
G3 X0.9375 Y0.8977 I-0.0225 J0
G3 X0.9326 Y0.905 I-0.0208 J-0.0086
G3 X0.9253 Y0.9099 I-0.0159 J-0.0159
G3 X0.9167 Y0.9116 I-0.0086 J-0.0208
G3 X0.9081 Y0.9099 I0 J-0.0225
G3 X0.9008 Y0.905 I0.0086 J-0.0208
G3 X0.8959 Y0.8977 I0.0159 J-0.0159
G3 X0.8942 Y0.8891 I0.0208 J-0.0086
G3 X0.8959 Y0.8805 I0.0225 J0
G3 X0.9008 Y0.8732 I0.0208 J0.0086
G3 X0.9081 Y0.8683 I0.0159 J0.0159
G3 X0.9167 Y0.8666 I0.0086 J0.0208
G3 X0.9253 Y0.8683 I0 J0.0225
G3 X0.9326 Y0.8732 I-0.0086 J0.0208
G3 X0.9375 Y0.8805 I-0.0159 J0.0159
G0 Z0.2
G0 X0.9008 Y1.3732
G1 Z-0.01 F2
G3 X0.9081 Y1.3683 I0.0159 J0.0159 F5.9
G3 X0.9167 Y1.3666 I0.0086 J0.0208
G3 X0.9253 Y1.3683 I0 J0.0225
G3 X0.9326 Y1.3732 I-0.0086 J0.0208
G3 X0.9375 Y1.3805 I-0.0159 J0.0159
G3 X0.9392 Y1.3891 I-0.0208 J0.0086
G3 X0.9375 Y1.3977 I-0.0225 J0
G3 X0.9326 Y1.405 I-0.0208 J-0.0086
G3 X0.9253 Y1.4099 I-0.0159 J-0.0159
G3 X0.9167 Y1.4116 I-0.0086 J-0.0208
G3 X0.9081 Y1.4099 I0 J-0.0225
G3 X0.9008 Y1.405 I0.0086 J-0.0208
G3 X0.8959 Y1.3977 I0.0159 J-0.0159
G3 X0.8942 Y1.3891 I0.0208 J-0.0086
G3 X0.8959 Y1.3805 I0.0225 J0
G3 X0.9008 Y1.3732 I0.0208 J0.0086
G0 Z0.2
G0 X0.9008 Y1.4732
G1 Z-0.01 F2
G3 X0.9081 Y1.4683 I0.0159 J0.0159 F5.9
G3 X0.9167 Y1.4666 I0.0086 J0.0208
G3 X0.9253 Y1.4683 I0 J0.0225
G3 X0.9326 Y1.4732 I-0.0086 J0.0208
G3 X0.9375 Y1.4805 I-0.0159 J0.0159
G3 X0.9392 Y1.4891 I-0.0208 J0.0086
G3 X0.9375 Y1.4977 I-0.0225 J0
G3 X0.9326 Y1.505 I-0.0208 J-0.0086
G3 X0.9253 Y1.5099 I-0.0159 J-0.0159
G3 X0.9167 Y1.5116 I-0.0086 J-0.0208
G3 X0.9081 Y1.5099 I0 J-0.0225
G3 X0.9008 Y1.505 I0.0086 J-0.0208
G3 X0.8959 Y1.4977 I0.0159 J-0.0159
G3 X0.8942 Y1.4891 I0.0208 J-0.0086
G3 X0.8959 Y1.4805 I0.0225 J0
G3 X0.9008 Y1.4732 I0.0208 J0.0086
G0 Z0.2
G0 X0.9008 Y1.5732
G1 Z-0.01 F2
G3 X0.9081 Y1.5683 I0.0159 J0.0159 F5.9
G3 X0.9167 Y1.5666 I0.0086 J0.0208
G3 X0.9253 Y1.5683 I0 J0.0225
G3 X0.9326 Y1.5732 I-0.0086 J0.0208
G3 X0.9375 Y1.5805 I-0.0159 J0.0159
G3 X0.9392 Y1.5891 I-0.0208 J0.0086
G3 X0.9375 Y1.5977 I-0.0225 J0
G3 X0.9326 Y1.605 I-0.0208 J-0.0086
G3 X0.9253 Y1.6099 I-0.0159 J-0.0159
G3 X0.9167 Y1.6116 I-0.0086 J-0.0208
G3 X0.9081 Y1.6099 I0 J-0.0225
G3 X0.9008 Y1.605 I0.0086 J-0.0208
G3 X0.8959 Y1.5977 I0.0159 J-0.0159
G3 X0.8942 Y1.5891 I0.0208 J-0.0086
G3 X0.8959 Y1.5805 I0.0225 J0
G3 X0.9008 Y1.5732 I0.0208 J0.0086
G0 Z0.2
G0 X0.9008 Y1.6732
G1 Z-0.01 F2
G3 X0.9081 Y1.6683 I0.0159 J0.0159 F5.9
G3 X0.9167 Y1.6666 I0.0086 J0.0208
G3 X0.9253 Y1.6683 I0 J0.0225
G3 X0.9326 Y1.6732 I-0.0086 J0.0208
G3 X0.9375 Y1.6805 I-0.0159 J0.0159
G3 X0.9392 Y1.6891 I-0.0208 J0.0086
G3 X0.9375 Y1.6977 I-0.0225 J0
G3 X0.9326 Y1.705 I-0.0208 J-0.0086
G3 X0.9253 Y1.7099 I-0.0159 J-0.0159
G3 X0.9167 Y1.7116 I-0.0086 J-0.0208
G3 X0.9081 Y1.7099 I0 J-0.0225
G3 X0.9008 Y1.705 I0.0086 J-0.0208
G3 X0.8959 Y1.6977 I0.0159 J-0.0159
G3 X0.8942 Y1.6891 I0.0208 J-0.0086
G3 X0.8959 Y1.6805 I0.0225 J0
G3 X0.9008 Y1.6732 I0.0208 J0.0086
G0 Z0.2
G0 X0.9167 Y1.0116
G1 Z-0.01 F2
G3 X0.9081 Y1.0099 I0 J-0.0225 F5.9
G3 X0.9008 Y1.005 I0.0086 J-0.0208
G3 X0.8959 Y0.9977 I0.0159 J-0.0159
G3 X0.8942 Y0.9891 I0.0208 J-0.0086
G3 X0.8959 Y0.9805 I0.0225 J0
G3 X0.9008 Y0.9732 I0.0208 J0.0086
G3 X0.9081 Y0.9683 I0.0159 J0.0159
G3 X0.9167 Y0.9666 I0.0086 J0.0208
G3 X0.9253 Y0.9683 I0 J0.0225
G3 X0.9326 Y0.9732 I-0.0086 J0.0208
G3 X0.9375 Y0.9805 I-0.0159 J0.0159
G3 X0.9392 Y0.9891 I-0.0208 J0.0086
G3 X0.9375 Y0.9977 I-0.0225 J0
G3 X0.9326 Y1.005 I-0.0208 J-0.0086
G3 X0.9253 Y1.0099 I-0.0159 J-0.0159
G3 X0.9167 Y1.0116 I-0.0086 J-0.0208
G0 Z0.2
G0 X0.9957 Y0.4891
G1 Z-0.01 F2
G3 X0.9973 Y0.481 I0.021 J0 F5.9
G3 X1.0019 Y0.4742 I0.0194 J0.008
G3 X1.0087 Y0.4697 I0.0148 J0.0148
G3 X1.0167 Y0.4681 I0.008 J0.0194
G3 X1.0247 Y0.4697 I0 J0.021
G3 X1.0316 Y0.4742 I-0.008 J0.0194
G3 X1.0361 Y0.481 I-0.0148 J0.0148
G3 X1.0377 Y0.4891 I-0.0194 J0.008
G3 X1.0361 Y0.4971 I-0.021 J0
G3 X1.0316 Y0.5039 I-0.0194 J-0.008
G3 X1.0247 Y0.5085 I-0.0148 J-0.0148
G3 X1.0167 Y0.5101 I-0.008 J-0.0194
G3 X1.0087 Y0.5085 I0 J-0.021
G3 X1.0019 Y0.5039 I0.008 J-0.0194
G3 X0.9973 Y0.4971 I0.0148 J-0.0148
G3 X0.9957 Y0.4891 I0.0194 J-0.008
G0 Z0.2
G0 X0.9957 Y0.5891
G1 Z-0.01 F2
G3 X0.9973 Y0.581 I0.021 J0 F5.9
G3 X1.0019 Y0.5742 I0.0194 J0.008
G3 X1.0087 Y0.5697 I0.0148 J0.0148
G3 X1.0167 Y0.5681 I0.008 J0.0194
G3 X1.0247 Y0.5697 I0 J0.021
G3 X1.0316 Y0.5742 I-0.008 J0.0194
G3 X1.0361 Y0.581 I-0.0148 J0.0148
G3 X1.0377 Y0.5891 I-0.0194 J0.008
G3 X1.0361 Y0.5971 I-0.021 J0
G3 X1.0316 Y0.6039 I-0.0194 J-0.008
G3 X1.0247 Y0.6085 I-0.0148 J-0.0148
G3 X1.0167 Y0.6101 I-0.008 J-0.0194
G3 X1.0087 Y0.6085 I0 J-0.021
G3 X1.0019 Y0.6039 I0.008 J-0.0194
G3 X0.9973 Y0.5971 I0.0148 J-0.0148
G3 X0.9957 Y0.5891 I0.0194 J-0.008
G0 Z0.2
G0 X1.0019 Y0.3039
G1 Z-0.01 F2
G3 X0.9973 Y0.2971 I0.0148 J-0.0148 F5.9
G3 X0.9957 Y0.2891 I0.0194 J-0.008
G3 X0.9973 Y0.281 I0.021 J0
G3 X1.0019 Y0.2742 I0.0194 J0.008
G3 X1.0087 Y0.2697 I0.0148 J0.0148
G3 X1.0167 Y0.2681 I0.008 J0.0194
G3 X1.0247 Y0.2697 I0 J0.021
G3 X1.0316 Y0.2742 I-0.008 J0.0194
G3 X1.0361 Y0.281 I-0.0148 J0.0148
G3 X1.0377 Y0.2891 I-0.0194 J0.008
G3 X1.0361 Y0.2971 I-0.021 J0
G3 X1.0316 Y0.3039 I-0.0194 J-0.008
G3 X1.0247 Y0.3085 I-0.0148 J-0.0148
G3 X1.0167 Y0.3101 I-0.008 J-0.0194
G3 X1.0087 Y0.3085 I0 J-0.021
G3 X1.0019 Y0.3039 I0.008 J-0.0194
G0 Z0.2
G0 X1.0019 Y0.4039
G1 Z-0.01 F2
G3 X0.9973 Y0.3971 I0.0148 J-0.0148 F5.9
G3 X0.9957 Y0.3891 I0.0194 J-0.008
G3 X0.9973 Y0.381 I0.021 J0
G3 X1.0019 Y0.3742 I0.0194 J0.008
G3 X1.0087 Y0.3697 I0.0148 J0.0148
G3 X1.0167 Y0.3681 I0.008 J0.0194
G3 X1.0247 Y0.3697 I0 J0.021
G3 X1.0316 Y0.3742 I-0.008 J0.0194
G3 X1.0361 Y0.381 I-0.0148 J0.0148
G3 X1.0377 Y0.3891 I-0.0194 J0.008
G3 X1.0361 Y0.3971 I-0.021 J0
G3 X1.0316 Y0.4039 I-0.0194 J-0.008
G3 X1.0247 Y0.4085 I-0.0148 J-0.0148
G3 X1.0167 Y0.4101 I-0.008 J-0.0194
G3 X1.0087 Y0.4085 I0 J-0.021
G3 X1.0019 Y0.4039 I0.008 J-0.0194
G0 Z0.2
G0 X1.0247 Y0.1697
G1 Z-0.01 F2
G3 X1.0316 Y0.1742 I-0.008 J0.0194 F5.9
G3 X1.0361 Y0.181 I-0.0148 J0.0148
G3 X1.0377 Y0.1891 I-0.0194 J0.008
G3 X1.0361 Y0.1971 I-0.021 J0
G3 X1.0316 Y0.2039 I-0.0194 J-0.008
G3 X1.0247 Y0.2085 I-0.0148 J-0.0148
G3 X1.0167 Y0.2101 I-0.008 J-0.0194
G3 X1.0087 Y0.2085 I0 J-0.021
G3 X1.0019 Y0.2039 I0.008 J-0.0194
G3 X0.9973 Y0.1971 I0.0148 J-0.0148
G3 X0.9957 Y0.1891 I0.0194 J-0.008
G3 X0.9973 Y0.181 I0.021 J0
G3 X1.0019 Y0.1742 I0.0194 J0.008
G3 X1.0087 Y0.1697 I0.0148 J0.0148
G3 X1.0167 Y0.1681 I0.008 J0.0194
G3 X1.0247 Y0.1697 I0 J0.021
G0 Z0.2
G0 X1.7977 Y1.5891
G1 Z-0.01 F2
G3 X1.7991 Y1.5818 I0.019 J0 F5.9
G3 X1.8033 Y1.5756 I0.0176 J0.0073
G3 X1.8094 Y1.5715 I0.0134 J0.0134
G3 X1.8167 Y1.5701 I0.0073 J0.0176
G3 X1.824 Y1.5715 I0 J0.019
G3 X1.8301 Y1.5756 I-0.0073 J0.0176
G3 X1.8343 Y1.5818 I-0.0134 J0.0134
G3 X1.8357 Y1.5891 I-0.0176 J0.0073
G3 X1.8343 Y1.5963 I-0.019 J0
G3 X1.8301 Y1.6025 I-0.0176 J-0.0073
G3 X1.824 Y1.6066 I-0.0134 J-0.0134
G3 X1.8167 Y1.6081 I-0.0073 J-0.0176
G3 X1.8094 Y1.6066 I0 J-0.019
G3 X1.8033 Y1.6025 I0.0073 J-0.0176
G3 X1.7991 Y1.5963 I0.0134 J-0.0134
G3 X1.7977 Y1.5891 I0.0176 J-0.0073
G0 Z0.2
G0 X1.7977 Y1.1891
G1 Z-0.01 F2
G3 X1.7991 Y1.1818 I0.019 J0 F5.9
G3 X1.8033 Y1.1756 I0.0176 J0.0073
G3 X1.8094 Y1.1715 I0.0134 J0.0134
G3 X1.8167 Y1.1701 I0.0073 J0.0176
G3 X1.824 Y1.1715 I0 J0.019
G3 X1.8301 Y1.1756 I-0.0073 J0.0176
G3 X1.8343 Y1.1818 I-0.0134 J0.0134
G3 X1.8357 Y1.1891 I-0.0176 J0.0073
G3 X1.8343 Y1.1963 I-0.019 J0
G3 X1.8301 Y1.2025 I-0.0176 J-0.0073
G3 X1.824 Y1.2066 I-0.0134 J-0.0134
G3 X1.8167 Y1.2081 I-0.0073 J-0.0176
G3 X1.8094 Y1.2066 I0 J-0.019
G3 X1.8033 Y1.2025 I0.0073 J-0.0176
G3 X1.7991 Y1.1963 I0.0134 J-0.0134
G3 X1.7977 Y1.1891 I0.0176 J-0.0073
G0 Z0.2
G0 X1.7977 Y0.8891
G1 Z-0.01 F2
G3 X1.7991 Y0.8818 I0.019 J0 F5.9
G3 X1.8033 Y0.8756 I0.0176 J0.0073
G3 X1.8094 Y0.8715 I0.0134 J0.0134
G3 X1.8167 Y0.8701 I0.0073 J0.0176
G3 X1.824 Y0.8715 I0 J0.019
G3 X1.8301 Y0.8756 I-0.0073 J0.0176
G3 X1.8343 Y0.8818 I-0.0134 J0.0134
G3 X1.8357 Y0.8891 I-0.0176 J0.0073
G3 X1.8343 Y0.8963 I-0.019 J0
G3 X1.8301 Y0.9025 I-0.0176 J-0.0073
G3 X1.824 Y0.9066 I-0.0134 J-0.0134
G3 X1.8167 Y0.9081 I-0.0073 J-0.0176
G3 X1.8094 Y0.9066 I0 J-0.019
G3 X1.8033 Y0.9025 I0.0073 J-0.0176
G3 X1.7991 Y0.8963 I0.0134 J-0.0134
G3 X1.7977 Y0.8891 I0.0176 J-0.0073
G0 Z0.2
G0 X1.1977 Y1.6891
G1 Z-0.01 F2
G3 X1.1991 Y1.6818 I0.019 J0 F5.9
G3 X1.2033 Y1.6756 I0.0176 J0.0073
G3 X1.2094 Y1.6715 I0.0134 J0.0134
G3 X1.2167 Y1.6701 I0.0073 J0.0176
G3 X1.224 Y1.6715 I0 J0.019
G3 X1.2301 Y1.6756 I-0.0073 J0.0176
G3 X1.2343 Y1.6818 I-0.0134 J0.0134
G3 X1.2357 Y1.6891 I-0.0176 J0.0073
G3 X1.2343 Y1.6963 I-0.019 J0
G3 X1.2301 Y1.7025 I-0.0176 J-0.0073
G3 X1.224 Y1.7066 I-0.0134 J-0.0134
G3 X1.2167 Y1.7081 I-0.0073 J-0.0176
G3 X1.2094 Y1.7066 I0 J-0.019
G3 X1.2033 Y1.7025 I0.0073 J-0.0176
G3 X1.1991 Y1.6963 I0.0134 J-0.0134
G3 X1.1977 Y1.6891 I0.0176 J-0.0073
G0 Z0.2
G0 X1.1977 Y1.5891
G1 Z-0.01 F2
G3 X1.1991 Y1.5818 I0.019 J0 F5.9
G3 X1.2033 Y1.5756 I0.0176 J0.0073
G3 X1.2094 Y1.5715 I0.0134 J0.0134
G3 X1.2167 Y1.5701 I0.0073 J0.0176
G3 X1.224 Y1.5715 I0 J0.019
G3 X1.2301 Y1.5756 I-0.0073 J0.0176
G3 X1.2343 Y1.5818 I-0.0134 J0.0134
G3 X1.2357 Y1.5891 I-0.0176 J0.0073
G3 X1.2343 Y1.5963 I-0.019 J0
G3 X1.2301 Y1.6025 I-0.0176 J-0.0073
G3 X1.224 Y1.6066 I-0.0134 J-0.0134
G3 X1.2167 Y1.6081 I-0.0073 J-0.0176
G3 X1.2094 Y1.6066 I0 J-0.019
G3 X1.2033 Y1.6025 I0.0073 J-0.0176
G3 X1.1991 Y1.5963 I0.0134 J-0.0134
G3 X1.1977 Y1.5891 I0.0176 J-0.0073
G0 Z0.2
G0 X1.1977 Y1.1891
G1 Z-0.01 F2
G3 X1.1991 Y1.1818 I0.019 J0 F5.9
G3 X1.2033 Y1.1756 I0.0176 J0.0073
G3 X1.2094 Y1.1715 I0.0134 J0.0134
G3 X1.2167 Y1.1701 I0.0073 J0.0176
G3 X1.224 Y1.1715 I0 J0.019
G3 X1.2301 Y1.1756 I-0.0073 J0.0176
G3 X1.2343 Y1.1818 I-0.0134 J0.0134
G3 X1.2357 Y1.1891 I-0.0176 J0.0073
G3 X1.2343 Y1.1963 I-0.019 J0
G3 X1.2301 Y1.2025 I-0.0176 J-0.0073
G3 X1.224 Y1.2066 I-0.0134 J-0.0134
G3 X1.2167 Y1.2081 I-0.0073 J-0.0176
G3 X1.2094 Y1.2066 I0 J-0.019
G3 X1.2033 Y1.2025 I0.0073 J-0.0176
G3 X1.1991 Y1.1963 I0.0134 J-0.0134
G3 X1.1977 Y1.1891 I0.0176 J-0.0073
G0 Z0.2
G0 X1.1977 Y0.8891
G1 Z-0.01 F2
G3 X1.1991 Y0.8818 I0.019 J0 F5.9
G3 X1.2033 Y0.8756 I0.0176 J0.0073
G3 X1.2094 Y0.8715 I0.0134 J0.0134
G3 X1.2167 Y0.8701 I0.0073 J0.0176
G3 X1.224 Y0.8715 I0 J0.019
G3 X1.2301 Y0.8756 I-0.0073 J0.0176
G3 X1.2343 Y0.8818 I-0.0134 J0.0134
G3 X1.2357 Y0.8891 I-0.0176 J0.0073
G3 X1.2343 Y0.8963 I-0.019 J0
G3 X1.2301 Y0.9025 I-0.0176 J-0.0073
G3 X1.224 Y0.9066 I-0.0134 J-0.0134
G3 X1.2167 Y0.9081 I-0.0073 J-0.0176
G3 X1.2094 Y0.9066 I0 J-0.019
G3 X1.2033 Y0.9025 I0.0073 J-0.0176
G3 X1.1991 Y0.8963 I0.0134 J-0.0134
G3 X1.1977 Y0.8891 I0.0176 J-0.0073
G0 Z0.2
G0 X1.7977 Y0.9891
G1 Z-0.01 F2
G3 X1.7991 Y0.9818 I0.019 J0 F5.9
G3 X1.8033 Y0.9756 I0.0176 J0.0073
G3 X1.8094 Y0.9715 I0.0134 J0.0134
G3 X1.8167 Y0.9701 I0.0073 J0.0176
G3 X1.824 Y0.9715 I0 J0.019
G3 X1.8301 Y0.9756 I-0.0073 J0.0176
G3 X1.8343 Y0.9818 I-0.0134 J0.0134
G3 X1.8357 Y0.9891 I-0.0176 J0.0073
G3 X1.8343 Y0.9963 I-0.019 J0
G3 X1.8301 Y1.0025 I-0.0176 J-0.0073
G3 X1.824 Y1.0066 I-0.0134 J-0.0134
G3 X1.8167 Y1.0081 I-0.0073 J-0.0176
G3 X1.8094 Y1.0066 I0 J-0.019
G3 X1.8033 Y1.0025 I0.0073 J-0.0176
G3 X1.7991 Y0.9963 I0.0134 J-0.0134
G3 X1.7977 Y0.9891 I0.0176 J-0.0073
G0 Z0.2
G0 X1.1977 Y0.9891
G1 Z-0.01 F2
G3 X1.1991 Y0.9818 I0.019 J0 F5.9
G3 X1.2033 Y0.9756 I0.0176 J0.0073
G3 X1.2094 Y0.9715 I0.0134 J0.0134
G3 X1.2167 Y0.9701 I0.0073 J0.0176
G3 X1.224 Y0.9715 I0 J0.019
G3 X1.2301 Y0.9756 I-0.0073 J0.0176
G3 X1.2343 Y0.9818 I-0.0134 J0.0134
G3 X1.2357 Y0.9891 I-0.0176 J0.0073
G3 X1.2343 Y0.9963 I-0.019 J0
G3 X1.2301 Y1.0025 I-0.0176 J-0.0073
G3 X1.224 Y1.0066 I-0.0134 J-0.0134
G3 X1.2167 Y1.0081 I-0.0073 J-0.0176
G3 X1.2094 Y1.0066 I0 J-0.019
G3 X1.2033 Y1.0025 I0.0073 J-0.0176
G3 X1.1991 Y0.9963 I0.0134 J-0.0134
G3 X1.1977 Y0.9891 I0.0176 J-0.0073
G0 Z0.2
G0 X1.7977 Y0.7891
G1 Z-0.01 F2
G3 X1.7991 Y0.7818 I0.019 J0 F5.9
G3 X1.8033 Y0.7756 I0.0176 J0.0073
G3 X1.8094 Y0.7715 I0.0134 J0.0134
G3 X1.8167 Y0.7701 I0.0073 J0.0176
G3 X1.824 Y0.7715 I0 J0.019
G3 X1.8301 Y0.7756 I-0.0073 J0.0176
G3 X1.8343 Y0.7818 I-0.0134 J0.0134
G3 X1.8357 Y0.7891 I-0.0176 J0.0073
G3 X1.8343 Y0.7963 I-0.019 J0
G3 X1.8301 Y0.8025 I-0.0176 J-0.0073
G3 X1.824 Y0.8066 I-0.0134 J-0.0134
G3 X1.8167 Y0.8081 I-0.0073 J-0.0176
G3 X1.8094 Y0.8066 I0 J-0.019
G3 X1.8033 Y0.8025 I0.0073 J-0.0176
G3 X1.7991 Y0.7963 I0.0134 J-0.0134
G3 X1.7977 Y0.7891 I0.0176 J-0.0073
G0 Z0.2
G0 X1.7977 Y0.6891
G1 Z-0.01 F2
G3 X1.7991 Y0.6818 I0.019 J0 F5.9
G3 X1.8033 Y0.6756 I0.0176 J0.0073
G3 X1.8094 Y0.6715 I0.0134 J0.0134
G3 X1.8167 Y0.6701 I0.0073 J0.0176
G3 X1.824 Y0.6715 I0 J0.019
G3 X1.8301 Y0.6756 I-0.0073 J0.0176
G3 X1.8343 Y0.6818 I-0.0134 J0.0134
G3 X1.8357 Y0.6891 I-0.0176 J0.0073
G3 X1.8343 Y0.6963 I-0.019 J0
G3 X1.8301 Y0.7025 I-0.0176 J-0.0073
G3 X1.824 Y0.7066 I-0.0134 J-0.0134
G3 X1.8167 Y0.7081 I-0.0073 J-0.0176
G3 X1.8094 Y0.7066 I0 J-0.019
G3 X1.8033 Y0.7025 I0.0073 J-0.0176
G3 X1.7991 Y0.6963 I0.0134 J-0.0134
G3 X1.7977 Y0.6891 I0.0176 J-0.0073
G0 Z0.2
G0 X1.7977 Y0.5891
G1 Z-0.01 F2
G3 X1.7991 Y0.5818 I0.019 J0 F5.9
G3 X1.8033 Y0.5756 I0.0176 J0.0073
G3 X1.8094 Y0.5715 I0.0134 J0.0134
G3 X1.8167 Y0.5701 I0.0073 J0.0176
G3 X1.824 Y0.5715 I0 J0.019
G3 X1.8301 Y0.5756 I-0.0073 J0.0176
G3 X1.8343 Y0.5818 I-0.0134 J0.0134
G3 X1.8357 Y0.5891 I-0.0176 J0.0073
G3 X1.8343 Y0.5963 I-0.019 J0
G3 X1.8301 Y0.6025 I-0.0176 J-0.0073
G3 X1.824 Y0.6066 I-0.0134 J-0.0134
G3 X1.8167 Y0.6081 I-0.0073 J-0.0176
G3 X1.8094 Y0.6066 I0 J-0.019
G3 X1.8033 Y0.6025 I0.0073 J-0.0176
G3 X1.7991 Y0.5963 I0.0134 J-0.0134
G3 X1.7977 Y0.5891 I0.0176 J-0.0073
G0 Z0.2
G0 X1.1977 Y0.7891
G1 Z-0.01 F2
G3 X1.1991 Y0.7818 I0.019 J0 F5.9
G3 X1.2033 Y0.7756 I0.0176 J0.0073
G3 X1.2094 Y0.7715 I0.0134 J0.0134
G3 X1.2167 Y0.7701 I0.0073 J0.0176
G3 X1.224 Y0.7715 I0 J0.019
G3 X1.2301 Y0.7756 I-0.0073 J0.0176
G3 X1.2343 Y0.7818 I-0.0134 J0.0134
G3 X1.2357 Y0.7891 I-0.0176 J0.0073
G3 X1.2343 Y0.7963 I-0.019 J0
G3 X1.2301 Y0.8025 I-0.0176 J-0.0073
G3 X1.224 Y0.8066 I-0.0134 J-0.0134
G3 X1.2167 Y0.8081 I-0.0073 J-0.0176
G3 X1.2094 Y0.8066 I0 J-0.019
G3 X1.2033 Y0.8025 I0.0073 J-0.0176
G3 X1.1991 Y0.7963 I0.0134 J-0.0134
G3 X1.1977 Y0.7891 I0.0176 J-0.0073
G0 Z0.2
G0 X1.1977 Y0.6891
G1 Z-0.01 F2
G3 X1.1991 Y0.6818 I0.019 J0 F5.9
G3 X1.2033 Y0.6756 I0.0176 J0.0073
G3 X1.2094 Y0.6715 I0.0134 J0.0134
G3 X1.2167 Y0.6701 I0.0073 J0.0176
G3 X1.224 Y0.6715 I0 J0.019
G3 X1.2301 Y0.6756 I-0.0073 J0.0176
G3 X1.2343 Y0.6818 I-0.0134 J0.0134
G3 X1.2357 Y0.6891 I-0.0176 J0.0073
G3 X1.2343 Y0.6963 I-0.019 J0
G3 X1.2301 Y0.7025 I-0.0176 J-0.0073
G3 X1.224 Y0.7066 I-0.0134 J-0.0134
G3 X1.2167 Y0.7081 I-0.0073 J-0.0176
G3 X1.2094 Y0.7066 I0 J-0.019
G3 X1.2033 Y0.7025 I0.0073 J-0.0176
G3 X1.1991 Y0.6963 I0.0134 J-0.0134
G3 X1.1977 Y0.6891 I0.0176 J-0.0073
G0 Z0.2
G0 X1.1977 Y0.5891
G1 Z-0.01 F2
G3 X1.1991 Y0.5818 I0.019 J0 F5.9
G3 X1.2033 Y0.5756 I0.0176 J0.0073
G3 X1.2094 Y0.5715 I0.0134 J0.0134
G3 X1.2167 Y0.5701 I0.0073 J0.0176
G3 X1.224 Y0.5715 I0 J0.019
G3 X1.2301 Y0.5756 I-0.0073 J0.0176
G3 X1.2343 Y0.5818 I-0.0134 J0.0134
G3 X1.2357 Y0.5891 I-0.0176 J0.0073
G3 X1.2343 Y0.5963 I-0.019 J0
G3 X1.2301 Y0.6025 I-0.0176 J-0.0073
G3 X1.224 Y0.6066 I-0.0134 J-0.0134
G3 X1.2167 Y0.6081 I-0.0073 J-0.0176
G3 X1.2094 Y0.6066 I0 J-0.019
G3 X1.2033 Y0.6025 I0.0073 J-0.0176
G3 X1.1991 Y0.5963 I0.0134 J-0.0134
G3 X1.1977 Y0.5891 I0.0176 J-0.0073
G0 Z0.2
G0 X1.7977 Y0.4891
G1 Z-0.01 F2
G3 X1.7991 Y0.4818 I0.019 J0 F5.9
G3 X1.8033 Y0.4756 I0.0176 J0.0073
G3 X1.8094 Y0.4715 I0.0134 J0.0134
G3 X1.8167 Y0.4701 I0.0073 J0.0176
G3 X1.824 Y0.4715 I0 J0.019
G3 X1.8301 Y0.4756 I-0.0073 J0.0176
G3 X1.8343 Y0.4818 I-0.0134 J0.0134
G3 X1.8357 Y0.4891 I-0.0176 J0.0073
G3 X1.8343 Y0.4963 I-0.019 J0
G3 X1.8301 Y0.5025 I-0.0176 J-0.0073
G3 X1.824 Y0.5066 I-0.0134 J-0.0134
G3 X1.8167 Y0.5081 I-0.0073 J-0.0176
G3 X1.8094 Y0.5066 I0 J-0.019
G3 X1.8033 Y0.5025 I0.0073 J-0.0176
G3 X1.7991 Y0.4963 I0.0134 J-0.0134
G3 X1.7977 Y0.4891 I0.0176 J-0.0073
G0 Z0.2
G0 X1.1977 Y0.4891
G1 Z-0.01 F2
G3 X1.1991 Y0.4818 I0.019 J0 F5.9
G3 X1.2033 Y0.4756 I0.0176 J0.0073
G3 X1.2094 Y0.4715 I0.0134 J0.0134
G3 X1.2167 Y0.4701 I0.0073 J0.0176
G3 X1.224 Y0.4715 I0 J0.019
G3 X1.2301 Y0.4756 I-0.0073 J0.0176
G3 X1.2343 Y0.4818 I-0.0134 J0.0134
G3 X1.2357 Y0.4891 I-0.0176 J0.0073
G3 X1.2343 Y0.4963 I-0.019 J0
G3 X1.2301 Y0.5025 I-0.0176 J-0.0073
G3 X1.224 Y0.5066 I-0.0134 J-0.0134
G3 X1.2167 Y0.5081 I-0.0073 J-0.0176
G3 X1.2094 Y0.5066 I0 J-0.019
G3 X1.2033 Y0.5025 I0.0073 J-0.0176
G3 X1.1991 Y0.4963 I0.0134 J-0.0134
G3 X1.1977 Y0.4891 I0.0176 J-0.0073
G0 Z0.2
G0 X1.8357 Y0.3891
G1 Z-0.01 F2
G3 X1.8343 Y0.3963 I-0.019 J0 F5.9
G3 X1.8301 Y0.4025 I-0.0176 J-0.0073
G3 X1.824 Y0.4066 I-0.0134 J-0.0134
G3 X1.8167 Y0.4081 I-0.0073 J-0.0176
G3 X1.8094 Y0.4066 I0 J-0.019
G3 X1.8033 Y0.4025 I0.0073 J-0.0176
G3 X1.7991 Y0.3963 I0.0134 J-0.0134
G3 X1.7977 Y0.3891 I0.0176 J-0.0073
G3 X1.7991 Y0.3818 I0.019 J0
G3 X1.8033 Y0.3756 I0.0176 J0.0073
G3 X1.8094 Y0.3715 I0.0134 J0.0134
G3 X1.8167 Y0.3701 I0.0073 J0.0176
G3 X1.824 Y0.3715 I0 J0.019
G3 X1.8301 Y0.3756 I-0.0073 J0.0176
G3 X1.8343 Y0.3818 I-0.0134 J0.0134
G3 X1.8357 Y0.3891 I-0.0176 J0.0073
G0 Z0.2
G0 X1.8357 Y0.2891
G1 Z-0.01 F2
G3 X1.8343 Y0.2963 I-0.019 J0 F5.9
G3 X1.8301 Y0.3025 I-0.0176 J-0.0073
G3 X1.824 Y0.3066 I-0.0134 J-0.0134
G3 X1.8167 Y0.3081 I-0.0073 J-0.0176
G3 X1.8094 Y0.3066 I0 J-0.019
G3 X1.8033 Y0.3025 I0.0073 J-0.0176
G3 X1.7991 Y0.2963 I0.0134 J-0.0134
G3 X1.7977 Y0.2891 I0.0176 J-0.0073
G3 X1.7991 Y0.2818 I0.019 J0
G3 X1.8033 Y0.2756 I0.0176 J0.0073
G3 X1.8094 Y0.2715 I0.0134 J0.0134
G3 X1.8167 Y0.2701 I0.0073 J0.0176
G3 X1.824 Y0.2715 I0 J0.019
G3 X1.8301 Y0.2756 I-0.0073 J0.0176
G3 X1.8343 Y0.2818 I-0.0134 J0.0134
G3 X1.8357 Y0.2891 I-0.0176 J0.0073
G0 Z0.2
G0 X1.2357 Y0.3891
G1 Z-0.01 F2
G3 X1.2343 Y0.3963 I-0.019 J0 F5.9
G3 X1.2301 Y0.4025 I-0.0176 J-0.0073
G3 X1.224 Y0.4066 I-0.0134 J-0.0134
G3 X1.2167 Y0.4081 I-0.0073 J-0.0176
G3 X1.2094 Y0.4066 I0 J-0.019
G3 X1.2033 Y0.4025 I0.0073 J-0.0176
G3 X1.1991 Y0.3963 I0.0134 J-0.0134
G3 X1.1977 Y0.3891 I0.0176 J-0.0073
G3 X1.1991 Y0.3818 I0.019 J0
G3 X1.2033 Y0.3756 I0.0176 J0.0073
G3 X1.2094 Y0.3715 I0.0134 J0.0134
G3 X1.2167 Y0.3701 I0.0073 J0.0176
G3 X1.224 Y0.3715 I0 J0.019
G3 X1.2301 Y0.3756 I-0.0073 J0.0176
G3 X1.2343 Y0.3818 I-0.0134 J0.0134
G3 X1.2357 Y0.3891 I-0.0176 J0.0073
G0 Z0.2
G0 X1.2357 Y0.2891
G1 Z-0.01 F2
G3 X1.2343 Y0.2963 I-0.019 J0 F5.9
G3 X1.2301 Y0.3025 I-0.0176 J-0.0073
G3 X1.224 Y0.3066 I-0.0134 J-0.0134
G3 X1.2167 Y0.3081 I-0.0073 J-0.0176
G3 X1.2094 Y0.3066 I0 J-0.019
G3 X1.2033 Y0.3025 I0.0073 J-0.0176
G3 X1.1991 Y0.2963 I0.0134 J-0.0134
G3 X1.1977 Y0.2891 I0.0176 J-0.0073
G3 X1.1991 Y0.2818 I0.019 J0
G3 X1.2033 Y0.2756 I0.0176 J0.0073
G3 X1.2094 Y0.2715 I0.0134 J0.0134
G3 X1.2167 Y0.2701 I0.0073 J0.0176
G3 X1.224 Y0.2715 I0 J0.019
G3 X1.2301 Y0.2756 I-0.0073 J0.0176
G3 X1.2343 Y0.2818 I-0.0134 J0.0134
G3 X1.2357 Y0.2891 I-0.0176 J0.0073
G0 Z0.2
G0 X1.2357 Y1.4891
G1 Z-0.01 F2
G3 X1.2343 Y1.4963 I-0.019 J0 F5.9
G3 X1.2301 Y1.5025 I-0.0176 J-0.0073
G3 X1.224 Y1.5066 I-0.0134 J-0.0134
G3 X1.2167 Y1.5081 I-0.0073 J-0.0176
G3 X1.2094 Y1.5066 I0 J-0.019
G3 X1.2033 Y1.5025 I0.0073 J-0.0176
G3 X1.1991 Y1.4963 I0.0134 J-0.0134
G3 X1.1977 Y1.4891 I0.0176 J-0.0073
G3 X1.1991 Y1.4818 I0.019 J0
G3 X1.2033 Y1.4756 I0.0176 J0.0073
G3 X1.2094 Y1.4715 I0.0134 J0.0134
G3 X1.2167 Y1.4701 I0.0073 J0.0176
G3 X1.224 Y1.4715 I0 J0.019
G3 X1.2301 Y1.4756 I-0.0073 J0.0176
G3 X1.2343 Y1.4818 I-0.0134 J0.0134
G3 X1.2357 Y1.4891 I-0.0176 J0.0073
G0 Z0.2
G0 X1.2357 Y1.3891
G1 Z-0.01 F2
G3 X1.2343 Y1.3963 I-0.019 J0 F5.9
G3 X1.2301 Y1.4025 I-0.0176 J-0.0073
G3 X1.224 Y1.4066 I-0.0134 J-0.0134
G3 X1.2167 Y1.4081 I-0.0073 J-0.0176
G3 X1.2094 Y1.4066 I0 J-0.019
G3 X1.2033 Y1.4025 I0.0073 J-0.0176
G3 X1.1991 Y1.3963 I0.0134 J-0.0134
G3 X1.1977 Y1.3891 I0.0176 J-0.0073
G3 X1.1991 Y1.3818 I0.019 J0
G3 X1.2033 Y1.3756 I0.0176 J0.0073
G3 X1.2094 Y1.3715 I0.0134 J0.0134
G3 X1.2167 Y1.3701 I0.0073 J0.0176
G3 X1.224 Y1.3715 I0 J0.019
G3 X1.2301 Y1.3756 I-0.0073 J0.0176
G3 X1.2343 Y1.3818 I-0.0134 J0.0134
G3 X1.2357 Y1.3891 I-0.0176 J0.0073
G0 Z0.2
G0 X1.2357 Y1.2891
G1 Z-0.01 F2
G3 X1.2343 Y1.2963 I-0.019 J0 F5.9
G3 X1.2301 Y1.3025 I-0.0176 J-0.0073
G3 X1.224 Y1.3066 I-0.0134 J-0.0134
G3 X1.2167 Y1.3081 I-0.0073 J-0.0176
G3 X1.2094 Y1.3066 I0 J-0.019
G3 X1.2033 Y1.3025 I0.0073 J-0.0176
G3 X1.1991 Y1.2963 I0.0134 J-0.0134
G3 X1.1977 Y1.2891 I0.0176 J-0.0073
G3 X1.1991 Y1.2818 I0.019 J0
G3 X1.2033 Y1.2756 I0.0176 J0.0073
G3 X1.2094 Y1.2715 I0.0134 J0.0134
G3 X1.2167 Y1.2701 I0.0073 J0.0176
G3 X1.224 Y1.2715 I0 J0.019
G3 X1.2301 Y1.2756 I-0.0073 J0.0176
G3 X1.2343 Y1.2818 I-0.0134 J0.0134
G3 X1.2357 Y1.2891 I-0.0176 J0.0073
G0 Z0.2
G0 X1.2357 Y1.0891
G1 Z-0.01 F2
G3 X1.2343 Y1.0963 I-0.019 J0 F5.9
G3 X1.2301 Y1.1025 I-0.0176 J-0.0073
G3 X1.224 Y1.1066 I-0.0134 J-0.0134
G3 X1.2167 Y1.1081 I-0.0073 J-0.0176
G3 X1.2094 Y1.1066 I0 J-0.019
G3 X1.2033 Y1.1025 I0.0073 J-0.0176
G3 X1.1991 Y1.0963 I0.0134 J-0.0134
G3 X1.1977 Y1.0891 I0.0176 J-0.0073
G3 X1.1991 Y1.0818 I0.019 J0
G3 X1.2033 Y1.0756 I0.0176 J0.0073
G3 X1.2094 Y1.0715 I0.0134 J0.0134
G3 X1.2167 Y1.0701 I0.0073 J0.0176
G3 X1.224 Y1.0715 I0 J0.019
G3 X1.2301 Y1.0756 I-0.0073 J0.0176
G3 X1.2343 Y1.0818 I-0.0134 J0.0134
G3 X1.2357 Y1.0891 I-0.0176 J0.0073
G0 Z0.2
G0 X1.7977 Y1.4891
G1 Z-0.01 F2
G3 X1.7991 Y1.4818 I0.019 J0 F5.9
G3 X1.8033 Y1.4756 I0.0176 J0.0073
G3 X1.8094 Y1.4715 I0.0134 J0.0134
G3 X1.8167 Y1.4701 I0.0073 J0.0176
G3 X1.824 Y1.4715 I0 J0.019
G3 X1.8301 Y1.4756 I-0.0073 J0.0176
G3 X1.8343 Y1.4818 I-0.0134 J0.0134
G3 X1.8357 Y1.4891 I-0.0176 J0.0073
G3 X1.8343 Y1.4963 I-0.019 J0
G3 X1.8301 Y1.5025 I-0.0176 J-0.0073
G3 X1.824 Y1.5066 I-0.0134 J-0.0134
G3 X1.8167 Y1.5081 I-0.0073 J-0.0176
G3 X1.8094 Y1.5066 I0 J-0.019
G3 X1.8033 Y1.5025 I0.0073 J-0.0176
G3 X1.7991 Y1.4963 I0.0134 J-0.0134
G3 X1.7977 Y1.4891 I0.0176 J-0.0073
G0 Z0.2
G0 X1.7977 Y1.3891
G1 Z-0.01 F2
G3 X1.7991 Y1.3818 I0.019 J0 F5.9
G3 X1.8033 Y1.3756 I0.0176 J0.0073
G3 X1.8094 Y1.3715 I0.0134 J0.0134
G3 X1.8167 Y1.3701 I0.0073 J0.0176
G3 X1.824 Y1.3715 I0 J0.019
G3 X1.8301 Y1.3756 I-0.0073 J0.0176
G3 X1.8343 Y1.3818 I-0.0134 J0.0134
G3 X1.8357 Y1.3891 I-0.0176 J0.0073
G3 X1.8343 Y1.3963 I-0.019 J0
G3 X1.8301 Y1.4025 I-0.0176 J-0.0073
G3 X1.824 Y1.4066 I-0.0134 J-0.0134
G3 X1.8167 Y1.4081 I-0.0073 J-0.0176
G3 X1.8094 Y1.4066 I0 J-0.019
G3 X1.8033 Y1.4025 I0.0073 J-0.0176
G3 X1.7991 Y1.3963 I0.0134 J-0.0134
G3 X1.7977 Y1.3891 I0.0176 J-0.0073
G0 Z0.2
G0 X1.7977 Y1.2891
G1 Z-0.01 F2
G3 X1.7991 Y1.2818 I0.019 J0 F5.9
G3 X1.8033 Y1.2756 I0.0176 J0.0073
G3 X1.8094 Y1.2715 I0.0134 J0.0134
G3 X1.8167 Y1.2701 I0.0073 J0.0176
G3 X1.824 Y1.2715 I0 J0.019
G3 X1.8301 Y1.2756 I-0.0073 J0.0176
G3 X1.8343 Y1.2818 I-0.0134 J0.0134
G3 X1.8357 Y1.2891 I-0.0176 J0.0073
G3 X1.8343 Y1.2963 I-0.019 J0
G3 X1.8301 Y1.3025 I-0.0176 J-0.0073
G3 X1.824 Y1.3066 I-0.0134 J-0.0134
G3 X1.8167 Y1.3081 I-0.0073 J-0.0176
G3 X1.8094 Y1.3066 I0 J-0.019
G3 X1.8033 Y1.3025 I0.0073 J-0.0176
G3 X1.7991 Y1.2963 I0.0134 J-0.0134
G3 X1.7977 Y1.2891 I0.0176 J-0.0073
G0 Z0.2
G0 X1.7977 Y1.0891
G1 Z-0.01 F2
G3 X1.7991 Y1.0818 I0.019 J0 F5.9
G3 X1.8033 Y1.0756 I0.0176 J0.0073
G3 X1.8094 Y1.0715 I0.0134 J0.0134
G3 X1.8167 Y1.0701 I0.0073 J0.0176
G3 X1.824 Y1.0715 I0 J0.019
G3 X1.8301 Y1.0756 I-0.0073 J0.0176
G3 X1.8343 Y1.0818 I-0.0134 J0.0134
G3 X1.8357 Y1.0891 I-0.0176 J0.0073
G3 X1.8343 Y1.0963 I-0.019 J0
G3 X1.8301 Y1.1025 I-0.0176 J-0.0073
G3 X1.824 Y1.1066 I-0.0134 J-0.0134
G3 X1.8167 Y1.1081 I-0.0073 J-0.0176
G3 X1.8094 Y1.1066 I0 J-0.019
G3 X1.8033 Y1.1025 I0.0073 J-0.0176
G3 X1.7991 Y1.0963 I0.0134 J-0.0134
G3 X1.7977 Y1.0891 I0.0176 J-0.0073
G0 Z0.2
G0 X1.824 Y1.6715
G1 Z-0.01 F2
G3 X1.8301 Y1.6756 I-0.0073 J0.0176 F5.9
G3 X1.8343 Y1.6818 I-0.0134 J0.0134
G3 X1.8357 Y1.6891 I-0.0176 J0.0073
G1 X1.8357 Y1.6891
G1 X1.8357 Y1.6891
G3 X1.8343 Y1.6963 I-0.019 J0
G3 X1.8301 Y1.7025 I-0.0176 J-0.0073
G3 X1.824 Y1.7066 I-0.0134 J-0.0134
G3 X1.8167 Y1.7081 I-0.0073 J-0.0176
G3 X1.8094 Y1.7066 I0 J-0.019
G3 X1.8033 Y1.7025 I0.0073 J-0.0176
G3 X1.7991 Y1.6963 I0.0134 J-0.0134
G3 X1.7977 Y1.6901 I0.0176 J-0.0073
G3 X1.7977 Y1.6891 I0.019 J-0.001
G3 X1.7977 Y1.688 I0.019 J0
G3 X1.7991 Y1.6818 I0.019 J0.001
G3 X1.8033 Y1.6756 I0.0176 J0.0073
G3 X1.8094 Y1.6715 I0.0134 J0.0134
G3 X1.8167 Y1.6701 I0.0073 J0.0176
G3 X1.824 Y1.6715 I0 J0.019
G0 Z0.2
G0 X0.6247 Y1.6024
G1 Z-0.01 F2
G3 X0.6271 Y1.606 I-0.008 J0.008 F5.9
G3 X0.628 Y1.6103 I-0.0104 J0.0043
G3 X0.6271 Y1.6146 I-0.0113 J0
G3 X0.6247 Y1.6183 I-0.0104 J-0.0043
G3 X0.621 Y1.6208 I-0.008 J-0.008
G3 X0.6167 Y1.6216 I-0.0043 J-0.0104
G3 X0.6124 Y1.6208 I0 J-0.0113
G3 X0.6087 Y1.6183 I0.0043 J-0.0104
G3 X0.6063 Y1.6146 I0.008 J-0.008
G3 X0.6054 Y1.6103 I0.0104 J-0.0043
G3 X0.6063 Y1.606 I0.0113 J0
G3 X0.6087 Y1.6024 I0.0104 J0.0043
G3 X0.6124 Y1.5999 I0.008 J0.008
G3 X0.6167 Y1.5991 I0.0043 J0.0104
G3 X0.621 Y1.5999 I0 J0.0113
G3 X0.6247 Y1.6024 I-0.0043 J0.0104
G0 Z0.2
G0 X0.621 Y1.542
G1 Z-0.01 F2
G3 X0.6167 Y1.5429 I-0.0043 J-0.0104 F5.9
G3 X0.6124 Y1.542 I0 J-0.0113
G3 X0.6087 Y1.5396 I0.0043 J-0.0104
G3 X0.6063 Y1.5359 I0.008 J-0.008
G3 X0.6054 Y1.5316 I0.0104 J-0.0043
G3 X0.6063 Y1.5273 I0.0113 J0
G3 X0.6087 Y1.5236 I0.0104 J0.0043
G3 X0.6124 Y1.5212 I0.008 J0.008
G3 X0.6167 Y1.5203 I0.0043 J0.0104
G3 X0.621 Y1.5212 I0 J0.0113
G3 X0.6247 Y1.5236 I-0.0043 J0.0104
G3 X0.6271 Y1.5273 I-0.008 J0.008
G3 X0.628 Y1.5316 I-0.0104 J0.0043
G3 X0.6271 Y1.5359 I-0.0113 J0
G3 X0.6247 Y1.5396 I-0.0104 J-0.0043
G3 X0.621 Y1.542 I-0.008 J-0.008
G0 Z0.2
G0 X0.6087 Y1.697
G1 Z-0.01 F2
G3 X0.6063 Y1.6934 I0.008 J-0.008 F5.9
G3 X0.6054 Y1.6891 I0.0104 J-0.0043
G3 X0.6063 Y1.6848 I0.0113 J0
G3 X0.6087 Y1.6811 I0.0104 J0.0043
G3 X0.6124 Y1.6786 I0.008 J0.008
G3 X0.6167 Y1.6778 I0.0043 J0.0104
G3 X0.621 Y1.6786 I0 J0.0113
G3 X0.6247 Y1.6811 I-0.0043 J0.0104
G3 X0.6271 Y1.6848 I-0.008 J0.008
G3 X0.628 Y1.6891 I-0.0104 J0.0043
G3 X0.6271 Y1.6934 I-0.0113 J0
G3 X0.6247 Y1.697 I-0.0104 J-0.0043
G3 X0.621 Y1.6995 I-0.008 J-0.008
G3 X0.6167 Y1.7003 I-0.0043 J-0.0104
G3 X0.6124 Y1.6995 I0 J-0.0113
G3 X0.6087 Y1.697 I0.0043 J-0.0104
G0 Z0.2
G0 X0.6167 Y1.4641
G1 Z-0.01 F2
G3 X0.6124 Y1.4633 I0 J-0.0113 F5.9
G3 X0.6087 Y1.4608 I0.0043 J-0.0104
G3 X0.6063 Y1.4572 I0.008 J-0.008
G3 X0.6054 Y1.4528 I0.0104 J-0.0043
G3 X0.6063 Y1.4485 I0.0113 J0
G3 X0.6087 Y1.4449 I0.0104 J0.0043
G3 X0.6124 Y1.4424 I0.008 J0.008
G3 X0.6167 Y1.4416 I0.0043 J0.0104
G3 X0.621 Y1.4424 I0 J0.0113
G3 X0.6247 Y1.4449 I-0.0043 J0.0104
G3 X0.6271 Y1.4485 I-0.008 J0.008
G3 X0.628 Y1.4528 I-0.0104 J0.0043
G3 X0.6271 Y1.4572 I-0.0113 J0
G3 X0.6247 Y1.4608 I-0.0104 J-0.0043
G3 X0.621 Y1.4633 I-0.008 J-0.008
G3 X0.6167 Y1.4641 I-0.0043 J-0.0104
G0 Z0.2
G0 X-0.0035 Y1.9645
G1 Z-0.01 F2
G1 X-0.0035 Y0.004 F5.9
G3 X0.004 Y-0.0035 I0.0075 J0
G1 X1.9645 Y-0.0035
G3 X1.972 Y0.004 I0 J0.0075
G1 X1.972 Y1.9645
G3 X1.9645 Y1.972 I-0.0075 J0
G1 X0.004 Y1.972
G3 X-0.0035 Y1.9645 I0 J-0.0075
G0 Z0.2
M5
M30
